!!!COM: Palestrina, Giovanni Perluigi da
!!!OPR: Spem In Alium
!!!OTL: Kyrie
**kern	**kern	**kern	**kern
*Ibass	*Itenor	*Icalto	*Icant
!Bassus	!Tenor	!Altus	!Cantus
*clefF4	*clefGv2	*clefG2	*clefG2
*k[]	*k[]	*k[]	*k[]
*A:aeo	*A:aeo	*A:aeo	*A:aeo
*M4/2	*M4/2	*M4/2	*M4/2
=1	=1	=1	=1
0r	0r	1r	0ee
.	.	1a	.
=2	=2	=2	=2
0r	0r	2a	1cc
.	.	2a	.
.	.	4d	[1ff
.	.	4e	.
.	.	4f	.
.	.	4g	.
=3	=3	=3	=3
0r	0r	4a	2ff]
.	.	4b	.
.	.	1cc	2ee
.	.	.	1dd
.	.	2b	.
=4	=4	=4	=4
0r	0r	2a	1.ee
.	.	2g	.
.	.	2cc	.
.	.	[2b	2dd
=5	=5	=5	=5
0r	1e	4b]	1cc
.	.	4a	.
.	.	1a	.
.	2e	.	1b
.	2e	2g#	.
=6	=6	=6	=6
0A	4A	1a	0a
.	4B	.	.
.	4c	.	.
.	4d	.	.
.	2e	2r	.
.	[2c	2a	.
=7	=7	=7	=7
1F	2c]	2a	0r
.	2.f	2a	.
[1B-	.	2.d	.
.	4e	.	.
.	4d	.	.
.	4c	4e	.
=8	=8	=8	=8
2B-]	2d	4f	0r
.	.	4g	.
2A	2.e	2a	.
1G	.	1b-	.
.	4d	.	.
.	[2d	.	.
=9	=9	=9	=9
1.A	2d]	1a	1ee
.	4c	.	.
.	4B	.	.
.	2c	1r	2ee
2G	2B	.	2ee
=10	=10	=10	=10
1F	0c	0r	4a
.	.	.	4b
.	.	.	4cc
.	.	.	4dd
1E	.	.	4ee
.	.	.	4ff
.	.	.	[2gg
=11	=11	=11	=11
2D	1d	[0a	2gg]
1d	.	.	2ff
.	1A	.	1ee
2c#	.	.	.
=12	=12	=12	=12
1d	2r	1a]	2.ff
.	2d	.	.
.	.	.	4ee
1r	2d	1a	4dd
.	.	.	4cc
.	2d	.	[2dd
=13	=13	=13	=13
0r	2G	1.b-	2dd]
.	1g	.	2.ee
.	.	.	4dd
.	2f	2a	[2dd
=14	=14	=14	=14
0r	1e	1g	2dd]
.	.	.	2cc
.	2.d	[1a	2.ff
.	4e	.	4ee
=15	=15	=15	=15
0r	2f	2a]	4cc
.	.	.	4dd
.	2.e	2g	2ee
.	.	1f	1a
.	4d	.	.
.	[2d	.	.
=16	=16	=16	=16
1A	2d]	0e	1r
.	4c	.	.
.	4B	.	.
2A	1c#	.	[1a
2A	.	.	.
=17	=17	=17	=17
4D	1d	2.f	1a]
4E	.	.	.
4F	.	.	.
4G	.	4e	.
2A	1r	2c	1f
[2B-	.	2d	.
=18	=18	=18	=18
4B-]	2r	1G	1.b-
4A	.	.	.
1G	2d	.	.
.	2d	2r	.
2F	2d	2d	2a
=19	=19	=19	=19
1B-	2G	2d	1g
.	1d	2d	.
2.A	.	2f	[1a
.	2c	2e	.
4G	.	.	.
=20	=20	=20	=20
2F	2f	1r	2a]
2C	2e	.	2g
2D	1d	1a	1f
[2d	.	.	.
=21	=21	=21	=21
2d]	1A	2a	2e
2c	.	2a	1a
1B-	1r	2.d	.
.	.	.	2g
.	.	4e	.
=22	=22	=22	=22
1A	1r	4f	1cc
.	.	4g	.
.	.	1a	.
1r	[1e	.	1b
.	.	2g#	.
=23	=23	=23	=23
1A	1e]	2.a	[0a
.	.	8g	.
.	.	8f	.
2A	1c	1e	.
2A	.	.	.
=24	=24	=24	=24
4D	1.f	1d	1a]
4E	.	.	.
4F	.	.	.
4G	.	.	.
4A	.	1c	2r
4B	.	.	.
[2c	2e	.	2g
=25	=25	=25	=25
2c]	1d	2r	2a
2B	.	2g	2b
2A	2.e	2a	2cc
2E	.	4g	[2b
.	4d	4f	.
=26	=26	=26	=26
2A	2c	2e	4b]
.	.	.	4a
2F	2A	2d	1a
1E	1B	1e	.
.	.	.	2g#
=27	=27	=27	=27
0A	0A	0e	0a
=28	=28	=28	=28
0r	0r	1a	0r
.	.	1d	.
=29	=29	=29	=29
0r	0r	1.a	1r
.	.	.	1ee
.	.	2g	.
=30	=30	=30	=30
0r	0r	2.cc	1a
.	.	4b	.
.	.	2a	[1ee
.	.	2g	.
=31	=31	=31	=31
0r	0r	2.a	2ee]
.	.	.	2cc
.	.	4g	.
.	.	4f	2.ff
.	.	4e	.
.	.	4d	.
.	.	4e	4ee
=32	=32	=32	=32
0r	1r	4f	2dd
.	.	4g	.
.	.	1a	2cc
.	1e	.	1b
.	.	2g	.
=33	=33	=33	=33
1r	1A	2f	[0a
.	.	4e	.
.	.	4d	.
[1A	[1e	2c	.
.	.	4A	.
.	.	4B	.
=34	=34	=34	=34
1A]	2e]	4c	0a]
.	.	4d	.
.	2c	2.e	.
1D	1f	.	.
.	.	4d	.
.	.	[2d	.
=35	=35	=35	=35
1.A	1e	2d]	0r
.	.	1c	.
.	2r	.	.
2G	[2e	2B	.
=36	=36	=36	=36
2.c	2e]	1A	0ee
.	1A	.	.
4B	.	.	.
2A	.	2r	.
2G	[2e	2B	.
=37	=37	=37	=37
1F	2e]	2c	1a
.	2d	2A	.
1E	1g	2B	[1ee
.	.	2c	.
=38	=38	=38	=38
1r	1f	1d	2ee]
.	.	.	2dd
2r	2.e	1c	2.gg
[2c	.	.	.
.	4d	.	4ff
=39	=39	=39	=39
2c]	2c	2r	2ee
2B	2d	2g	2dd
2A	[1e	2a	2cc
2G	.	2b	2b
=40	=40	=40	=40
2A	1e]	2cc	2a
2E	.	2.b	2g
1F	1r	.	1a
.	.	4a	.
.	.	[2a	.
=41	=41	=41	=41
1E	0e	2a]	0b
.	.	4g	.
.	.	4f#	.
1r	.	1g#	.
=42	=42	=42	=42
0A	2A	[0a	1ee
.	1e	.	.
.	.	.	2a
.	2c	.	[2ee
=43	=43	=43	=43
1D	1f	1a]	4ee]
.	.	.	4dd
.	.	.	1dd
[1A	1e	1r	.
.	.	.	2cc
=44	=44	=44	=44
2A]	1r	1e	1b
2G	.	.	.
2.c	2r	1A	2a
.	[2A	.	2b
4B	.	.	.
=45	=45	=45	=45
2A	2A]	1.e	2cc
2G	2B	.	2b
1F	2c	.	1a
.	2d	2d	.
=46	=46	=46	=46
1E	2.e	2.g	1r
.	4d	4f	.
[1A	2c	4e	2r
.	.	4d	.
.	[2f	[2c	[2a
=47	=47	=47	=47
2A]	4f]	2c]	2a]
.	4e	.	.
2G	1e	2B	2b
1F	.	2A	2cc
.	2d	[2a	2dd
=48	=48	=48	=48
1E	2c	2a]	2.ee
.	2B	2g	.
.	.	.	4dd
[1F	2.A	[1a	2cc
.	.	.	[2ff
.	4B	.	.
=49	=49	=49	=49
2F]	1c	2a]	2ff]
2C	.	2g	2ee
1D	1A	1f	1dd
=50	=50	=50	=50
0A	0A	0e	0cc#
=51	=51	=51	=51
0r	0r	1r	1.a
.	.	[1a	.
.	.	.	2a
=52	=52	=52	=52
0r	0r	2a]	1cc
.	.	2a	.
.	.	2g	1dd
.	.	2f	.
=53	=53	=53	=53
0r	1.A	2.e	1ee
.	.	4d	.
.	.	4c	[1ee
.	.	4B	.
.	2A	4c	.
.	.	4d	.
=54	=54	=54	=54
0r	1c	4e	2ee]
.	.	4f	.
.	.	4g	2ee
.	.	4e	.
.	1d	4f	2dd
.	.	4g	.
.	.	[2a	2cc
=55	=55	=55	=55
1r	[0e	2a]	1b
.	.	2g#	.
[1A	.	2a	[1cc
.	.	2A	.
=56	=56	=56	=56
2A]	1e]	2c	2cc]
2A	.	2c	4b
.	.	.	4a
2G	1r	4d	2b
.	.	4c	.
2F	.	4B	[2a
.	.	4A	.
=57	=57	=57	=57
1E	1.e	1B	2a]
.	.	.	2g#
1A	.	2A	1a
.	2e	[2a	.
=58	=58	=58	=58
1F	2d	2a]	0r
.	2c	2a	.
2G	2B	2g	.
2D	[2d	2f	.
=59	=59	=59	=59
0A	2d]	1e	2r
.	4c	.	1ee
.	4B	.	.
.	1c	1e	.
.	.	.	2ee
=60	=60	=60	=60
0r	2B	2r	2dd
.	2A	1a	2cc
.	1e	.	1b
.	.	2g	.
=61	=61	=61	=61
1.A	0r	2cc	1a
.	.	2a	.
.	.	2.cc	[1ee
2A	.	.	.
.	.	4b	.
=62	=62	=62	=62
1c	0r	2a	2ee]
.	.	2g	2ee
1d	.	2f	2dd
.	.	[2a	2cc
=63	=63	=63	=63
1e	1r	2a]	1b
.	.	2g	.
1r	[1A	2f	1a
.	.	4e	.
.	.	4d	.
=64	=64	=64	=64
1.A	2A]	2.c	1.cc
.	2A	.	.
.	.	4d	.
.	1c	4e	.
.	.	4f	.
2A	.	[2e	2cc
=65	=65	=65	=65
2G	1d	4e]	2b
.	.	4d	.
2F	.	1d	2a
1E	2e	.	2.g
.	[2g	2c#	.
.	.	.	4a
=66	=66	=66	=66
0D	2g]	1d	2b-
.	4f	.	2a
.	4e	.	.
.	2.f	2r	1a
.	.	[2d	.
.	4g	.	.
=67	=67	=67	=67
2r	0a	2d]	2r
1d	.	2d	1ff
.	.	1f	.
2d	.	.	2ff
=68	=68	=68	=68
2c	1r	1g	2ee
2B-	.	.	2dd
1A	2r	1a	2.cc
.	[2a	.	.
.	.	.	4b
=69	=69	=69	=69
1A	2a]	2.A	4cc
.	.	.	4dd
.	2a	.	1ee
.	.	4B	.
1r	2g	2c	.
.	2f	2d	[2dd
=70	=70	=70	=70
2r	1e	1A	2dd]
1A	.	.	2cc
.	1c	1r	2a
2A	.	.	2cc
=71	=71	=71	=71
2G	4d	1r	2b
.	4c	.	.
2F	4B	.	1a
.	4A	.	.
1E	2B	[1e	.
.	2B	.	2g#
=72	=72	=72	=72
1A	4c	2e]	1a
.	4d	.	.
.	4e	2e	.
.	8d	.	.
.	8e	.	.
2D	2f	2d	2r
2A	2e	2c	[2a
=73	=73	=73	=73
1D	2.d	1f	2a]
.	.	.	2a
.	4A	.	.
1r	2c	2e	2g
.	2d	[2d	2f
=74	=74	=74	=74
2r	2.A	2d]	2e
1A	.	2c	2.a
.	4B	.	.
.	4c	2.e	.
.	4d	.	4b
2A	4e	.	4cc
.	4c	4f	4a
=75	=75	=75	=75
2G	4d	2g	2b
.	4c	.	.
2F	4B	2d	1a
.	4A	.	.
1E	1B	1e	.
.	.	.	2g#
=76	=76	=76	=76
[0A	[0A	[0e	[0a
=77	=77	=77	=77
0A]	0A]	0e]	0a]
==	==	==	==
*-	*-	*-	*-
!!!CDT: 1525/^1526/-1594/2/2
!!!OCY: Italia
!!!AGN: Mass (Parody)
!!!AST: renaissance, vocal
!!!ASW: Motet 1539 (Jacquet)
!!!PWK: Masses, Book 3
!!!RNB: Cadence finals: D
!!!YOR: Le Opere Complete, v. 6, p. 1
!!!YOO: Rome, Italy: Fratelli Scalera
!!!END: 1992//
!!!EED: John Miller
!!!YEC: Copyright 2000, John Miller
!!!YEN: United States of America
!!!YEM: Rights to all derivative electronic formats reserved.
!!!YEM: Refer to licensing agreement for further details.
!!!YEM: This file must be accompanied by the licensing agreement.
!!!YEM: A copy of the licensing agreement may be found at http://www.music-cog.ohio-state.edu/HumdrumDatabases/Palestrina/license.txt
!!!EMD: converted to Humdrum by Bret Aarden
